X:1
T:Peter Davidson
C:unknown
R:Reel
M:C|
Q:1/2=120
K:D
%%MIDI gchord czczczcz
A,2| "D"D2 FD ADFA| dfec "D7"dBAF| "Em"BEEF GABc| "E7"dfed "A7"(3cde Ac|
    "D"dDDE FDFA| dfec dBAF| "G"GABG "D"AGFD| "A7"EDCE "D"D2 :|
A2 | "D"d2 Ad fage| fdec dBAF| "Em"BEEF GABc| "E7"dfed "A7"(3cde Ac|
    "D"d2 Ad fage| fdec "D7"dBAF|  "G"GABG "D"AGFD| "A7"EDCE "D"D2 :|
A2 | "D"d2 Ad fage| fdec dBAF| "Em"BEEF GABc| "E7"dfed "A7"(3cde Ac|
    "D"dDDE FDFA| dfec dBAF| "G"GABG "D"AGFD| "A7"EDCE "D"D2 :|
